X: 1786
T: Sokak Başı Meyhane
C: (Anonim)
O: Turkey
F: http://compmusic.upf.edu/node/140
N: nikriz--turku--nimsofyan--sokak_basi--giresun
N: makam= nikriz
N: form= turku
N: usul= nimsofyan = 2/4
M: 2/4
L: 1/16
K: C _7/8B ^3/4f ^c 
Q: 1/4=54
%%MIDI tuningsystem comma53
zd2c/d/ d3/2c/d/c/d  | zd2c/d/ d3/2c/d/c/d  | \
w:   |   | 
zdcd d3/2c/d/c/d  | 
w:   | 
zdcd d3/2c/d/c/d  | zddc Bc/c/B/A/G  | \
w:   |   | 
GG/A/B/A/G GG/F/G/F/G  | 
w:   | 
zddc Bc/c/B/A/G  | GG/A/B/A/G GG/F/G/F/G  | 
w:   |   | 
zGdc Bc/c/B/A/G  | GG/A/B/A/G GG/F/G/F/G  | 
w:   |   | 
zGdc Bc/c/B/A/G  | GG/A/B/A/G GG/F/G/F/G  | 
w:   |   | 
G=c/d/c2 _1/4B/c/B/^A/B2  | _1/4B=c/d/B^A/c/ cBB/A/B  | \
w:  So kak  *  *  ba  |  şı  mey *  *  *  *  ha *  ne    | 
G=c/d/c2 _1/4B/c/B/^A/B2  | 
w:  So kak  *  *  ba  | 
_1/4BB2A A/=c/B/c/AG  | zA/=c/_1/4BB/c/ B/c/B/A/BG  | 
w:  şı  mey *  ha *  *  *  ne    |  As *  *  ma *  dan  | 
A/=c/_1/4B/c/AG A2G/F/G  | zGdc Bc/c/B/A/G  | \
w:  dır  *  *  *  ka *  pı sı    |  SAZ  | 
GG/A/B/A/G GG/F/G/F/G  | 
w:   | 
zGdc Bc/c/B/A/G  | GG/A/B/A/G GG/F/G/F/G  | 
w:  SAZ  |   | 
z_1/4B/d/=cc/d/ B/c/B/^A/B2  | _1/4B=c/d/B^A/c/ cBB/A/B  | 
w:  Ben  *  *  gö *  zü  |  me  al *  *  *  *  dır *  dım    | 
z_1/4B/d/=cc/d/ B/c/B/^A/Bd  | dde2 edd/=c/d  | \
w:  Ben  *  *  gö *  zü  |  me  *  al dır *  dım    | 
zd2d B/c/B/A/BG  | 
w:  On  beş  se  | 
A/c/B/c/AG A2G/F/G  | zddc Bc/c/B/A/G  | \
w:  ne  *  *  *  ha *  pı sı    |   | 
GG/A/B/A/G GG/F/G/F/G  | 
w:   | 
zddc Bc/c/B/A/G  | GG/A/B/A/G GG/F/G/F/G  | 
w:   |   | 
zGdc Bc/c/B/A/G  | GG/A/B/A/G GG/F/G/F/G  | 
w:   |   | 
zGdc Bc/c/B/A/G  | GG/A/B/A/G GG/F/G/F/G  | 
w:   |   | 
G=c/d/c2 _1/4B/c/B/^A/B2  | _1/4B=c/d/B^A/c/ cBB/A/B  | \
w:  So kak  *  *  ba  |  şı  mey *  *  *  *  ha *  ne    | 
G=c/d/c2 _1/4B/c/B/^A/B2  | 
w:  So kak  *  *  ba  | 
_1/4BB2A A/=c/B/c/AG  | zA/=c/_1/4BB/c/ B/c/B/A/BG  | 
w:  şı  mey *  ha *  *  *  ne    |  As *  *  ma *  dan  | 
A/=c/_1/4B/c/AG A2G/F/G  | zGdc Bc/c/B/A/G  | \
w:  dır  *  *  *  ka *  pı sı    |  SAZ  | 
GG/A/B/A/G GG/F/G/F/G  | 
w:   | 
zGdc Bc/c/B/A/G  | GG/A/B/A/G GG/F/G/F/G  | 
w:  SAZ  |   | 
z_1/4B/d/=cc/d/ B/c/B/^A/B2  | _1/4B=c/d/B^A/c/ cBB/A/B  | 
w:  Ben  *  *  gö *  zü  |  me  al *  *  *  *  dır *  dım    | 
z_1/4B/d/=cc/d/ B/c/B/^A/Bd  | dde2 edd/=c/d  | \
w:  Ben  *  *  gö *  zü  |  me  *  al dır *  dım    | 
zd2d B/c/B/A/BG  | 
w:  On  beş  se  | 
A/c/B/c/AG A2G/F/G  | |


